X: 15
T: Salve crux
N: Derived from Obr2028-Salve_crux.krn
C: Jacob Obrecht
%%abc-version 2.0
%%abcx-abcm2ps-target-version 5.9.1 (29 Sep 2008)
%%abc-creator hum2abc beta
%%abcx-conversion-date 2019/02/17 07:23:44
%%abc-edited-by Jesse Rodin
%%abc-edited-by Jesse Rodin 21/05/2005
%%abcx-initial-encoding-date 2012/10/06/
%%humdrum-veritas 795286190
%%humdrum-veritas-data 3665625713
%%linebreak <none>
%%barnumbers 0
L: 1/4
M: 3/1
Q: 1/2=120
V: 1 clef=treble
V: 2 clef=treble-8
V: 3 clef=treble-8
V: 4 clef=treble-8
V: 5 clef=bass
K: F
[V:1] z12 | 
[V:2] z12 | 
[V:3] z12 | 
[V:4] z12 | 
[V:5] B,,4B,,3A,,G,,2F,,2 | 
[V:1] z12 | 
[V:2] z12 | 
[V:3] z12 | 
[V:4] z4F4F3E | 
[V:5] B,,2C,2D,2B,,4A,,2 | 
[V:1] z12 | 
[V:2] z4z4c4 | 
[V:3] z12 | 
[V:4] D2C2F2G2A4- | 
[V:5] B,,2C,A,,2B,,2A,,/G,,/F,,2F,2- | 
[V:1] z12 | 
[V:2] c3BA2G2c2d2 | 
[V:3] z12 | 
[V:4] A2G2Ac2B/A/Gc2=B | 
[V:5] F,2E,2F,2E,C,2E,D,2 | 
[V:1] G8G4 | 
[V:2] e6e2e4 | 
[V:3] z12 | 
[V:4] c2zc2G2c2B/A/G2 | 
[V:5] C,6C,2C,4 | 
[V:1] A3G/F/G2F4E2 | 
[V:2] f4e2c3B/A/B3/c/ | 
[V:3] z12 | 
[V:4] F2c3BA2G3F/E/ | 
[V:5] F,,4z4z4 | 
[V:1] F4z4z4 | 
[V:2] dB2A/G/Fd2c/B/Af2e | 
[V:3] z12 | 
[V:4] Dd2c/B/AB2A/G/FAG2 | 
[V:5] B,,3C,D,2B,,2z2C,2 | 
[V:1] A8A4 | 
[V:2] f3e/d/c4z2f2- | 
[V:3] z12 | 
[V:4] F4z4c4 | 
[V:5] D,3E,F,4F,4 | 
[V:1] B3A/B/A2G4F2 | 
[V:2] f2d2e2d2z2d2 | 
[V:3] z12 | 
[V:4] d4c2B2A3B- | 
[V:5] B,,4z2B,,2C,2D,2 | 
[V:1] G4z4z4 | 
[V:2] G2B2A2G4^F2 | 
[V:3] z12 | 
[V:4] BAGFE2D4C2 | 
[V:5] _E,3D,C,2B,,2A,,4 | 
[V:1] B8B4 | 
[V:2] G2d2e2d3cB2 | 
[V:3] z12 | 
[V:4] D4z6G2- | 
[V:5] G,,12 | 
[V:1] c3B/c/B2A4G2 | 
[V:2] A4z2A2B4 | 
[V:3] z12 | 
[V:4] G2F2G2D2G3D | 
[V:5] z4z4G,,4 | 
[V:1] A4z2F2A2B2 | 
[V:2] A2zf2edf3/e/cd2 | 
[V:3] z12 | 
[V:4] F3GA3F2AG2 | 
[V:5] D,3C,/B,,/A,,2D,2z2G,,2 | 
[V:1] c3B/A/G2F2z2D2 | 
[V:2] c3de2fd2c2=B | 
[V:3] z12 | 
[V:4] E2C2zc2B3/A/G2F | 
[V:5] A,,3B,,C,2F,,B,,2C,D,2 | 
[V:1] E2FG2F/E/D2C2z2 | 
[V:2] c2d_e2d/c/B2c2dc | 
[V:3] z12 | 
[V:4] G2zC3/D/E/F/G2EFDA- | 
[V:5] C,2z2z2G,,2A,,2B,,C,- | 
[V:1] z2G2A2Bc2B/A/G2 | 
[V:2] A2B2A2zF2f2e | 
[V:3] z12 | 
[V:4] AG/F/E2F2GA2G/F/c2 | 
[V:5] C,B,,/A,,/G,,2F,,2z2z2C,2 | 
[V:1] F2EF3/G/A/B/cA2G/F/E2 | 
[V:2] f3cdfec2Bc2 | 
[V:3] z12 | 
[V:4] A2c2F2A3/B/cFG2 | 
[V:5] D,2A,,2D,2C,F,2D,C,2 | 
[V:1] F8z2C2 | 
[V:2] A4z2F2G2A2 | 
[V:3] z12 | 
[V:4] F4z4z4 | 
[V:5] F,,4z4z4 | 
[V:1] D2E2F2D2z2F2 | 
[V:2] B2G2z2B2B2A2 | 
[V:3] z12 | 
[V:4] z12 | 
[V:5] z12 | 
[V:1] F2E2F2G2E2z2 | 
[V:2] B2c2A2z2c2B2 | 
[V:3] z12 | 
[V:4] z12 | 
[V:5] z12 | 
[V:1] G2F2D2E2F2z2 | 
[V:2] G2A2B2z2d2c2 | 
[V:3] z12 | 
[V:4] z12 | 
[V:5] z12 | 
[V:1] A2G2E2F2G2E2 | 
[V:2] A2B2c2A2z2c2 | 
[V:3] z12 | 
[V:4] z12 | 
[V:5] z12 | 
[V:1] z2G2G2F2G2A2 | 
[V:2] c2B2c2d2Bc2d- | 
[V:3] z12 | 
[V:4] z12 | 
[V:5] z12 | 
[V:1] FB2ABA2F2E/D/E2 | 
[V:2] dG2d2c3/B/A2G/F/G2 | 
[V:3] z12 | 
[V:4] z12 | 
[V:5] z12 | 
[V:1] F8G4- | 
[V:2] F4A4G4- | 
[V:3] c12- | 
[V:4] F8E4- | 
[V:5] F,,8C,4- | 
[V:1] G4A8 | 
[V:2] G4F8 | 
[V:3] c12 | 
[V:4] E4C8 | 
[V:5] C,4A,,8 | 
[V:1] B4z2B3AGF | 
[V:2] G12 | 
[V:3] B12 | 
[V:4] D4_E4D4 | 
[V:5] G,,4z4G,,4 | 
[V:1] E4E3F/G/A4 | 
[V:2] z2G2A2c2cBAG | 
[V:3] c12- | 
[V:4] C4z6c2- | 
[V:5] A,,2C,3B,,A,,G,,F,,4 | 
[V:1] z2c3BAGF4 | 
[V:2] F4z2A3GFE | 
[V:3] c8A4 | 
[V:4] cBAGF4z2F2- | 
[V:5] z6F,3E,D,C, | 
[V:1] z2F2G2A2G4 | 
[V:2] D2d3cA2B3A/G/ | 
[V:3] B3AG2F4E2 | 
[V:4] FEDCB,2C4B,2 | 
[V:5] B,,4z2F,,2G,,4 | 
[V:1] C6B,2C2DE | 
[V:2] A3Bc2d2A2B2 | 
[V:3] F12 | 
[V:4] C4z2F3EDC | 
[V:5] F,,3G,,A,,2B,,2F,,2B,,2- | 
[V:1] FGA2F4z2c2- | 
[V:2] d2c4B2c3d | 
[V:3] F8A4- | 
[V:4] B,2C2D4E4 | 
[V:5] B,,2A,,2B,,4A,,3B,, | 
[V:1] cBAGA3GF2E2 | 
[V:2] e2f2c2f3ga2 | 
[V:3] A12 | 
[V:4] z4F4D2E2 | 
[V:5] C,2D,2A,,2D,4C,2 | 
[V:1] z2D2E2G4F2 | 
[V:2] d2f2e4z4 | 
[V:3] A4c8- | 
[V:4] F4G4z4 | 
[V:5] D,4C,3D,E,2F,2 | 
[V:1] E2C2G4z4 | 
[V:2] z2c3B/A/G2F2A2 | 
[V:3] c12 | 
[V:4] A4G4A3G/F/ | 
[V:5] C,2F,4E,2F,4 | 
[V:1] z4z6G2 | 
[V:2] G2B3AGFG4 | 
[V:3] c2d4c4=B2 | 
[V:4] E2F4E2D4 | 
[V:5] z2B,,4C,2G,,4 | 
[V:1] E2G3FEDC4 | 
[V:2] G4z2g2e2g2- | 
[V:3] c12- | 
[V:4] C8C2G2 | 
[V:5] z2G,2E,2G,3F,E,D, | 
[V:1] z12 | 
[V:2] gfedc4z4 | 
[V:3] c12 | 
[V:4] E2G3FEDC2c2 | 
[V:5] C,4z2C,2A,,2C,2- | 
[V:1] z2c2A2c3BAG | 
[V:2] z6c2A2c2- | 
[V:3] z12 | 
[V:4] A2c3BAGF4 | 
[V:5] C,B,,A,,G,,F,,4z4 | 
[V:1] FGABc2B4A2 | 
[V:2] cBAGFf2ef4 | 
[V:3] z12 | 
[V:4] A6B2c4 | 
[V:5] z2F,4G,2F,4 | 
[V:1] B4z2B3AG2- | 
[V:2] f4z2F2B4- | 
[V:3] d12- | 
[V:4] B3A/G/F2D2G4- | 
[V:5] B,,8G,,4- | 
[V:1] GFD4F3ED2 | 
[V:2] B12 | 
[V:3] d12 | 
[V:4] G4F8 | 
[V:5] G,,4B,,8 | 
[V:1] C3B,A,2B,2G,4 | 
[V:2] G4z4g4 | 
[V:3] e4f4c4 | 
[V:4] E4z6G2 | 
[V:5] C,4D,4E,4 | 
[V:1] z12 | 
[V:2] f4d2e2f4 | 
[V:3] c2d4c2c2=B2 | 
[V:4] A6G4F2 | 
[V:5] F,6E,2D,4 | 
[V:1] z2G3FE2C2G2- | 
[V:2] e4z2g4e2 | 
[V:3] c12- | 
[V:4] G4C4G3F | 
[V:5] C,4G,3F,E,2C,2 | 
[V:1] GFE3DC4F2- | 
[V:2] c2g3fedc2A2 | 
[V:3] c8z4 | 
[V:4] E2C2G4C4 | 
[V:5] G,4C,3B,,A,,2F,,2 | 
[V:1] F2E2F4z2G2- | 
[V:2] G4F2f2d2_e2- | 
[V:3] c4A4B4- | 
[V:4] z4c3B/A/G3F | 
[V:5] C,4F,,4z4 | 
[V:1] G2F4E2F4 | 
[V:2] edc3BG2A2c2- | 
[V:3] B2A2G4F2A2- | 
[V:4] _E2F2C4z2F2- | 
[V:5] z4z4F,,4- | 
[V:1] z6c3BA2 | 
[V:2] cBA2G4F2f2 | 
[V:3] AGF4E2F2A2 | 
[V:4] FGABc8 | 
[V:5] F,,4C,4F,,4 | 
[V:1] B6A2G4 | 
[V:2] g3f/e/d2f4e2 | 
[V:3] G6A2B2c2 | 
[V:4] d4B2c2d2G2 | 
[V:5] z4z6C,2 | 
[V:1] F2A3GF4E2 | 
[V:2] f2e2c4z4 | 
[V:3] A2c3BA2G4 | 
[V:4] z2c2A2c3B/A/G2 | 
[V:5] D,2C,2F,,4C,4 | 
[V:1] F12 | 
[V:2] c8d4 | 
[V:3] F12 | 
[V:4] A8z2D2 | 
[V:5] F,,8z2B,,2 | 
[V:1] z12 | 
[V:2] c4z2B2A2F2 | 
[V:3] z12 | 
[V:4] EC2F2E/D/EDF4 | 
[V:5] A,,2F,,2G,,2G,,2F,,4 | 
[V:1] z12 | 
[V:2] G2G2F4z2B2- | 
[V:3] z12 | 
[V:4] z12 | 
[V:5] z2B,,4A,,2B,,4 | 
[V:1] z12 | 
[V:2] B2A2B4c2c2 | 
[V:3] z12 | 
[V:4] z12 | 
[V:5] C,2C,2G,,4z2C,2- | 
[V:1] z12 | 
[V:2] G4z2c4B2 | 
[V:3] z12 | 
[V:4] z12 | 
[V:5] C,2B,,2C,2C,2D,4 | 
[V:1] z12 | 
[V:2] c2c2d4c4 | 
[V:3] z12 | 
[V:4] z12 | 
[V:5] C,4z2G,,2A,,2C,2- | 
[V:1] z12 | 
[V:2] z2G2A2c4B2 | 
[V:3] z12 | 
[V:4] z12 | 
[V:5] C,2B,,2A,,4G,,4 | 
[V:1] z12 | 
[V:2] A4G4d2d2 | 
[V:3] z12 | 
[V:4] z12 | 
[V:5] D,2D,2E,2E,2F,4 | 
[V:1] z12 | 
[V:2] e2e2f4c4 | 
[V:3] z12 | 
[V:4] z12 | 
[V:5] C,4z2D,2E,2F,2- | 
[V:1] z12 | 
[V:2] z2d2e2f3BB2 | 
[V:3] z12 | 
[V:4] z12 | 
[V:5] F,B,,B,,2C,2D,3_E,D,C,/B,,/ | 
[V:1] z12 | 
[V:2] c2d3_edc/B/A2B2- | 
[V:3] z12 | 
[V:4] z12 | 
[V:5] A,,2B,,3G,,B,,C,D,2G,,2 | 
[V:1] z12 | 
[V:2] BGBcd_e2d/c/Bc2=B | 
[V:3] z12 | 
[V:4] z12 | 
[V:5] zG,2E,F,G,2F,/E,/D,C,D,2 | 
[V:1] z4z4G2G2 | 
[V:2] c8c2c2 | 
[V:3] z12 | 
[V:4] z4z4C2C2 | 
[V:5] C,8z4 | 
[V:1] A2A2B4c4 | 
[V:2] c2c2d4c4 | 
[V:3] z12 | 
[V:4] F2A2G4C4 | 
[V:5] z12 | 
[V:1] B2B2F2B2AA2G/A/ | 
[V:2] d2d2d2d2c4 | 
[V:3] z12 | 
[V:4] G2G2B2B2F4 | 
[V:5] z12 | 
[V:1] B4A3AA2A2 | 
[V:2] B4c2c2c2c2 | 
[V:3] z12 | 
[V:4] B,4F2F2F2F2 | 
[V:5] z12 | 
[V:1] G4A4D2D2 | 
[V:2] B4A4B2B2 | 
[V:3] z12 | 
[V:4] G4D4G2G2 | 
[V:5] z12 | 
[V:1] ED2G2F/E/F2GB2A/G/ | 
[V:2] B2B2A4G4 | 
[V:3] z12 | 
[V:4] G2G2D4E4 | 
[V:5] z12 | 
[V:1] F2zFCDCF2E/D/E2 | 
[V:2] A2A2A2A2G4 | 
[V:3] z12 | 
[V:4] D2D2F2F2C4 | 
[V:5] z12 | 
[V:1] F2A3Bc3BG2- | 
[V:2] F4f4e4 | 
[V:3] z12 | 
[V:4] c4c3B/A/G3A | 
[V:5] z2F,,3G,,A,,B,,C,D,E,F, | 
[V:1] G2A2G2F4E2 | 
[V:2] d2e2d2B2c4 | 
[V:3] z12 | 
[V:4] B2A2B2F2G4 | 
[V:5] G,2C,2B,,2D,2C,4 | 
[V:1] F4z4F4 | 
[V:2] A4F2f3ecd | 
[V:3] c12- | 
[V:4] F8A4 | 
[V:5] F,,8F,,4 | 
[V:1] G3AB2A3Bc2 | 
[V:2] e2c2d2c2A4 | 
[V:3] c4B2c4A2 | 
[V:4] G6E2F2C2 | 
[V:5] C,3B,,/A,,/G,,2A,,2F,,4 | 
[V:1] F4z4G4 | 
[V:2] d3cB2A2B4 | 
[V:3] B4G2F4E2 | 
[V:4] B,2D4C4B,2 | 
[V:5] z2B,,4F,,2G,,4 | 
[V:1] A2c3BAGF2A2- | 
[V:2] A2z2c3BAGF2 | 
[V:3] F12 | 
[V:4] C4z2c3BAG | 
[V:5] F,,12 | 
[V:1] A2G3FF4E2 | 
[V:2] c8c4 | 
[V:3] z12 | 
[V:4] F2C2F2A2G4 | 
[V:5] z4z4C,4 | 
[V:1] F4F4F2F2- | 
[V:2] A2d3ef3ec2- | 
[V:3] F4F2A4A2 | 
[V:4] F2B2A2d3cA2- | 
[V:5] D,2B,,2D,4D,2F,2- | 
[V:1] F2A3GFED2F2 | 
[V:2] c2f2c2f3ed2 | 
[V:3] c4c2d4d2 | 
[V:4] ABc2c2A2B4 | 
[V:5] F,2F,2F,4B,,4 | 
[V:1] E2G4F2D2G2- | 
[V:2] c3B/A/G2A2B3c | 
[V:3] e4c2d4B2 | 
[V:4] G3FE2D2G4 | 
[V:5] C,4z4G,,4 | 
[V:1] G2F2G8 | 
[V:2] d6c2d4 | 
[V:3] A4G2c4=B2 | 
[V:4] z2F2D2E2D4 | 
[V:5] D,4B,,2C,2G,,4 | 
[V:1] G6G2G4 | 
[V:2] e12 | 
[V:3] c12 | 
[V:4] C8z4 | 
[V:5] z6C,3D,E,2 | 
[V:1] A2c3BB4A2 | 
[V:2] z4f8 | 
[V:3] z12 | 
[V:4] c4d4c4 | 
[V:5] F,4z2B,,2F,4 | 
[V:1] B6c3Gc2- | 
[V:2] f6e2c3B | 
[V:3] d4d2e4e2 | 
[V:4] B3A/G/F2GFEDC2 | 
[V:5] B,,4D,2C,3B,,A,,G,, | 
[V:1] cBAGF2c3Gc2- | 
[V:2] AGF2f2e2g4 | 
[V:3] f4f2c4e2 | 
[V:4] z2F3GA2G4 | 
[V:5] F,,4z4C,4 | 
[V:1] c2=B2c4z2G2 | 
[V:2] g3fedc3B/A/G2 | 
[V:3] d4c8 | 
[V:4] z2G3FEDC2c2- | 
[V:5] G,,4C,2C,3D,E,2 | 
[V:1] A2F4E2F4 | 
[V:2] F2c4c2A4- | 
[V:3] z4z4c4 | 
[V:4] c2A2G4F4- | 
[V:5] F,3F,,C,4F,,4- | 
[V:1] A6G2E4 | 
[V:2] A4z4A3G/F/ | 
[V:3] c2A4B2c4 | 
[V:4] F4D4C3D | 
[V:5] F,,4z2G,,2A,,3B,, | 
[V:1] z4B4A2c2 | 
[V:2] E2D2G2D2F4 | 
[V:3] A2B4G2A4 | 
[V:4] E2F2D4C4 | 
[V:5] C,2D,2G,,2B,,2F,,4 | 
[V:1] A2c4B2A2A/G/F/E/ | 
[V:2] c3BA2G2E2F2 | 
[V:3] F2A4B2c4 | 
[V:4] z12 | 
[V:5] z2F,,4G,,2A,,2F,,2 | 
[V:1] D2C4F4E2 | 
[V:2] G2AF2c2Bc4- | 
[V:3] B2A4F2G4 | 
[V:4] z4z6G2 | 
[V:5] z2F,3E,D,2C,4 | 
[V:1] F12- | 
[V:2] c2A3Bc2B4 | 
[V:3] F12- | 
[V:4] A2c3CC2D4 | 
[V:5] F,,8B,,4 | 
[V:1] F12 ||  
[V:2] A12 ||  
[V:3] F12 ||  
[V:4] C12 ||  
[V:5] F,,12 ||  
[V:1]  [K:F] [K:clef=treble][M:2/1]z8 | 
[V:2]  [K:F] [K:clef=treble-8][M:2/1]z8 | 
[V:3]  [K:F] [K:clef=treble-8][M:2/1]z8 | 
[V:4]  [K:F] [K:clef=treble-8][M:2/1]z8 | 
[V:5]  [K:F] [K:clef=bass][M:2/1]F,8 | 
[V:1] z8 | 
[V:2] z8 | 
[V:3] z8 | 
[V:4] z8 | 
[V:5] E,8 | 
[V:1] z8 | 
[V:2] c8 | 
[V:3] z8 | 
[V:4] z8 | 
[V:5] F,8 | 
[V:1] z8 | 
[V:2] B8 | 
[V:3] z8 | 
[V:4] z8 | 
[V:5] D,8 | 
[V:1] G8 | 
[V:2] c8 | 
[V:3] z8 | 
[V:4] z8 | 
[V:5] C,4C,4 | 
[V:1] F8 | 
[V:2] A8 | 
[V:3] z8 | 
[V:4] z8 | 
[V:5] D,8 | 
[V:1] G8 | 
[V:2] B8 | 
[V:3] z8 | 
[V:4] G8- | 
[V:5] G,,8 | 
[V:1] E8 | 
[V:2] c8- | 
[V:3] z8 | 
[V:4] G8 | 
[V:5] C,8 | 
[V:1] F8- | 
[V:2] c6Bc | 
[V:3] z8 | 
[V:4] F8 | 
[V:5] F,,8 | 
[V:1] F4E4 | 
[V:2] d4G4 | 
[V:3] z8 | 
[V:4] B8 | 
[V:5] z8 | 
[V:1] D8 | 
[V:2] G8 | 
[V:3] z8 | 
[V:4] B8 | 
[V:5] z8 | 
[V:1] C4z2c2- | 
[V:2] z4c4 | 
[V:3] z8 | 
[V:4] A8 | 
[V:5] z8 | 
[V:1] c2BAB4 | 
[V:2] d4d4 | 
[V:3] z8 | 
[V:4] G8 | 
[V:5] z8 | 
[V:1] c4A4 | 
[V:2] c4f4- | 
[V:3] c8 | 
[V:4] A8 | 
[V:5] z8 | 
[V:1] B6AG | 
[V:2] f2ede4 | 
[V:3] B8 | 
[V:4] G8 | 
[V:5] z8 | 
[V:1] A4F2A2- | 
[V:2] f8- | 
[V:3] c8 | 
[V:4] F8- | 
[V:5] F,,8- | 
[V:1] ABc4BA | 
[V:2] f8 | 
[V:3] A8 | 
[V:4] F8 | 
[V:5] F,,8 | 
[V:1] G3F/G/A2F2- | 
[V:2] z4c4 | 
[V:3] B4A4 | 
[V:4] z8 | 
[V:5] G,,4F,,4 | 
[V:1] F2E2F2A2- | 
[V:2] c4d4 | 
[V:3] G4F4 | 
[V:4] z8 | 
[V:5] C,4F,,4 | 
[V:1] A2GFE2F2 | 
[V:2] c6F2 | 
[V:3] F4A4 | 
[V:4] z8 | 
[V:5] F,,4z4 | 
[V:1] E2F3GA2 | 
[V:2] A4A3G/A/ | 
[V:3] c2c2c3B/c/ | 
[V:4] z8 | 
[V:5] z8 | 
[V:1] G2F4E2 | 
[V:2] B2F2G4 | 
[V:3] d2c4B2 | 
[V:4] z8 | 
[V:5] z8 | 
[V:1] F8 | 
[V:2] FGABc2A2 | 
[V:3] c8 | 
[V:4] z8 | 
[V:5] z4F,4 | 
[V:1] z8 | 
[V:2] c2B4AG | 
[V:3] z8 | 
[V:4] z8 | 
[V:5] E,2D,4C,B,, | 
[V:1] z8 | 
[V:2] F2G4^F2 | 
[V:3] z8 | 
[V:4] z8 | 
[V:5] A,,2G,,2A,,4 | 
[V:1] z4G4 | 
[V:2] G8 | 
[V:3] d8- | 
[V:4] B8 | 
[V:5] G,,8 | 
[V:1] F2G3AB2- | 
[V:2] z8 | 
[V:3] d8- | 
[V:4] B4B4 | 
[V:5] z8 | 
[V:1] BAGFG4 | 
[V:2] z8 | 
[V:3] d8 | 
[V:4] B8 | 
[V:5] z8 | 
[V:1] C4z2c2 | 
[V:2] z8 | 
[V:3] e8- | 
[V:4] A8 | 
[V:5] z8 | 
[V:1] G2A2G2c2- | 
[V:2] z8 | 
[V:3] e8 | 
[V:4] c8 | 
[V:5] z8 | 
[V:1] c2=BA=B4 | 
[V:2] z8 | 
[V:3] f8 | 
[V:4] d8 | 
[V:5] z8 | 
[V:1] c8 | 
[V:2] G4A4 | 
[V:3] e8 | 
[V:4] c8 | 
[V:5] C,4A,,2C,2 | 
[V:1] z8 | 
[V:2] B4G2A2 | 
[V:3] d4c4 | 
[V:4] z8 | 
[V:5] G,,2G,2E,2F,2 | 
[V:1] z8 | 
[V:2] B2G3AB2 | 
[V:3] B2c2_e2d2- | 
[V:4] z8 | 
[V:5] G,2C,4B,,2 | 
[V:1] z8 | 
[V:2] A2G4F2 | 
[V:3] dcc3=B=BA | 
[V:4] z8 | 
[V:5] C,2E,2D,4 | 
[V:1] z8 | 
[V:2] G4C4 | 
[V:3] c8 | 
[V:4] z8 | 
[V:5] C,4A,,4 | 
[V:1] z8 | 
[V:2] G2D4G2 | 
[V:3] z8 | 
[V:4] B6AB | 
[V:5] G,,4B,,4 | 
[V:1] z8 | 
[V:2] F2G4F2 | 
[V:3] z8 | 
[V:4] c4A4 | 
[V:5] A,,4A,,4 | 
[V:1] z8 | 
[V:2] G2F2D4 | 
[V:3] z8 | 
[V:4] B6A2 | 
[V:5] G,,2B,,3C,D,2 | 
[V:1] z8 | 
[V:2] z4d4 | 
[V:3] c4A4 | 
[V:4] G4F4 | 
[V:5] _E,2C,2D,4 | 
[V:1] z8 | 
[V:2] d8- | 
[V:3] B4G2B2- | 
[V:4] G8 | 
[V:5] G,,8 | 
[V:1] z8 | 
[V:2] d8 | 
[V:3] B2AGF4 | 
[V:4] A8 | 
[V:5] D,8 | 
[V:1] G4D2G2- | 
[V:2] d4d4 | 
[V:3] G4z2d2- | 
[V:4] B8 | 
[V:5] G,,8 | 
[V:1] G2FEF4 | 
[V:2] z2d3ef2 | 
[V:3] d2cBA2d2 | 
[V:4] A8 | 
[V:5] D,4D,4 | 
[V:1] G6B2- | 
[V:2] d2_e4d2 | 
[V:3] B2c4d2- | 
[V:4] G8 | 
[V:5] G,,2C,4B,,2- | 
[V:1] BAG3F_ED | 
[V:2] B2_e3dc2- | 
[V:3] d2c4BA | 
[V:4] G8 | 
[V:5] B,,2C,4_E,2- | 
[V:1] C2F4E2 | 
[V:2] c2B2c4 | 
[V:3] G2F2G4 | 
[V:4] z8 | 
[V:5] __E,2D,2C,4 | 
[V:1] F8- | 
[V:2] A8- | 
[V:3] F8- | 
[V:4] z8 | 
[V:5] F,,8 | 
[V:1] F8 | 
[V:2] A8 | 
[V:3] F8 | 
[V:4] z8 | 
[V:5] z4F,,4 | 
[V:1] z8 | 
[V:2] z4F4 | 
[V:3] z8 | 
[V:4] z8 | 
[V:5] C,4D,4 | 
[V:1] z8 | 
[V:2] c4d4 | 
[V:3] z8 | 
[V:4] z8 | 
[V:5] C,4F,4 | 
[V:1] z8 | 
[V:2] c4f4 | 
[V:3] z8 | 
[V:4] z8 | 
[V:5] E,2C,2D,4 | 
[V:1] z8 | 
[V:2] e4c2d2- | 
[V:3] z8 | 
[V:4] z8 | 
[V:5] C,3D,E,2F,2- | 
[V:1] z8 | 
[V:2] d2c4=B2 | 
[V:3] z8 | 
[V:4] z8 | 
[V:5] F,C,E,2D,4 | 
[V:1] z4G4 | 
[V:2] c8 | 
[V:3] z8 | 
[V:4] z8 | 
[V:5] C,8 | 
[V:1] A4B4 | 
[V:2] z8 | 
[V:3] z8 | 
[V:4] z4G4 | 
[V:5] z8 | 
[V:1] c4z2G2- | 
[V:2] z8 | 
[V:3] z8 | 
[V:4] A4B4 | 
[V:5] z8 | 
[V:1] G2A2B4- | 
[V:2] z8 | 
[V:3] z8 | 
[V:4] c4z2G2- | 
[V:5] z8 | 
[V:1] B2AGF2G2- | 
[V:2] z8 | 
[V:3] z8 | 
[V:4] G2A2B4- | 
[V:5] z8 | 
[V:1] GAB2A2G2- | 
[V:2] z8 | 
[V:3] z8 | 
[V:4] B2AGF2B2- | 
[V:5] z8 | 
[V:1] GFF4E2 | 
[V:2] z8 | 
[V:3] z8 | 
[V:4] BFA2G4 | 
[V:5] z8 | 
[V:1] F8 | 
[V:2] z4c4 | 
[V:3] z8 | 
[V:4] F8 | 
[V:5] z8 | 
[V:1] z8 | 
[V:2] B4A4 | 
[V:3] z8 | 
[V:4] z8 | 
[V:5] z4F,4 | 
[V:1] z8 | 
[V:2] G4z2B2 | 
[V:3] z8 | 
[V:4] z8 | 
[V:5] E,4D,4 | 
[V:1] z8 | 
[V:2] c4A2c2- | 
[V:3] z8 | 
[V:4] z8 | 
[V:5] C,4z2E,2 | 
[V:1] z8 | 
[V:2] cBAGF2B2- | 
[V:3] z8 | 
[V:4] z8 | 
[V:5] F,4D,2D,2- | 
[V:1] z8 | 
[V:2] B2A4G2 | 
[V:3] z8 | 
[V:4] z8 | 
[V:5] D,2C,2B,,4 | 
[V:1] A4A4 | 
[V:2] A8 | 
[V:3] z8 | 
[V:4] z8 | 
[V:5] A,,8 | 
[V:1] G4F4 | 
[V:2] z8 | 
[V:3] z8 | 
[V:4] z4A4 | 
[V:5] z8 | 
[V:1] c4B4 | 
[V:2] z8 | 
[V:3] z8 | 
[V:4] A4G4 | 
[V:5] z8 | 
[V:1] A2c3BA2- | 
[V:2] z8 | 
[V:3] z8 | 
[V:4] F4c4 | 
[V:5] z8 | 
[V:1] A2G2A2A,2- | 
[V:2] z8 | 
[V:3] z8 | 
[V:4] B4A2c2- | 
[V:5] z8 | 
[V:1] A,B,C2B,4 | 
[V:2] z8 | 
[V:3] z8 | 
[V:4] cBA4G2 | 
[V:5] z8 | 
[V:1] A,2A3FF2 | 
[V:2] z8 | 
[V:3] z8 | 
[V:4] A4z2A2- | 
[V:5] z8 | 
[V:1] c3BA2G2- | 
[V:2] z8 | 
[V:3] z8 | 
[V:4] AFF2c4 | 
[V:5] z8 | 
[V:1] GFF4E2 | 
[V:2] z8 | 
[V:3] z8 | 
[V:4] B2A2G4 | 
[V:5] z8 | 
[V:1] F8 | 
[V:2] z8 | 
[V:3] z8 | 
[V:4] F8 | 
[V:5] z4B,,4 | 
[V:1] z8 | 
[V:2] z8 | 
[V:3] z8 | 
[V:4] z4F4 | 
[V:5] A,,4F,,4 | 
[V:1] z8 | 
[V:2] z4c4 | 
[V:3] z8 | 
[V:4] E4C4 | 
[V:5] G,,4A,,4 | 
[V:1] z4G4 | 
[V:2] B4G4 | 
[V:3] z8 | 
[V:4] D4E4 | 
[V:5] B,,4z4 | 
[V:1] F4D4 | 
[V:2] A4B4 | 
[V:3] z8 | 
[V:4] F4z4 | 
[V:5] z8 | 
[V:1] E4F4 | 
[V:2] c4z4 | 
[V:3] z8 | 
[V:4] z8 | 
[V:5] z8 | 
[V:1] G4z4 | 
[V:2] z8 | 
[V:3] z8 | 
[V:4] z8 | 
[V:5] G,,4A,,4 | 
[V:1] z8 | 
[V:2] z8 | 
[V:3] z8 | 
[V:4] D4E4 | 
[V:5] B,,2B,,2C,4 | 
[V:1] z8 | 
[V:2] A4B4 | 
[V:3] z8 | 
[V:4] F2F2G4 | 
[V:5] F,,4z4 | 
[V:1] E4F4 | 
[V:2] c2c2d4 | 
[V:3] z8 | 
[V:4] C4z4 | 
[V:5] z8 | 
[V:1] G2G2A4 | 
[V:2] G2B4A2 | 
[V:3] z8 | 
[V:4] z8 | 
[V:5] z8 | 
[V:1] D4z4 | 
[V:2] B4z4 | 
[V:3] z8 | 
[V:4] z8 | 
[V:5] z8 | 
[V:1] E4E4 | 
[V:2] c4c4 | 
[V:3] z8 | 
[V:4] G4G4 | 
[V:5] C,4C,4 | 
[V:1] F4C2F2- | 
[V:2] c4c4 | 
[V:3] z8 | 
[V:4] A4A4 | 
[V:5] F,4F,4 | 
[V:1] F2EDE4 | 
[V:2] c8 | 
[V:3] z8 | 
[V:4] G8 | 
[V:5] C,8 | 
[V:1] F8 | 
[V:2] c4z4 | 
[V:3] z8 | 
[V:4] F8- | 
[V:5] F,,4z4 | 
[V:1] z8 | 
[V:2] f4f4 | 
[V:3] z8 | 
[V:4] F8 | 
[V:5] z8 | 
[V:1] z8 | 
[V:2] d4d4 | 
[V:3] z8 | 
[V:4] z8 | 
[V:5] F,4F,4 | 
[V:1] z8 | 
[V:2] f6ed | 
[V:3] z8 | 
[V:4] z8 | 
[V:5] D,4D,4 | 
[V:1] z8 | 
[V:2] c2d3ef2 | 
[V:3] z8 | 
[V:4] z8 | 
[V:5] F,6E,D, | 
[V:1] z8 | 
[V:2] e3d/c/B2d2- | 
[V:3] z8 | 
[V:4] z8 | 
[V:5] C,2G,4F,2 | 
[V:1] z8 | 
[V:2] d2c4=B2 | 
[V:3] z8 | 
[V:4] z8 | 
[V:5] E,2C,2D,4 | 
[V:1] c4c4 | 
[V:2] c8 | 
[V:3] z8 | 
[V:4] z8 | 
[V:5] C,8 | 
[V:1] A4A4 | 
[V:2] z8 | 
[V:3] z8 | 
[V:4] c4c4 | 
[V:5] F,,8- | 
[V:1] c6BA | 
[V:2] z8 | 
[V:3] z8 | 
[V:4] A4A4 | 
[V:5] F,,8 | 
[V:1] G2A3Bc2 | 
[V:2] z8 | 
[V:3] z8 | 
[V:4] c6BA | 
[V:5] z8 | 
[V:1] B2AGF2A2- | 
[V:2] z8 | 
[V:3] z8 | 
[V:4] G2d4c2 | 
[V:5] z8 | 
[V:1] AGG4^F2 | 
[V:2] z8 | 
[V:3] z8 | 
[V:4] B2G2A4 | 
[V:5] z8 | 
[V:1] G4z4 | 
[V:2] z8 | 
[V:3] z8 | 
[V:4] G4z4 | 
[V:5] z8 | 
[V:1] E4E3F | 
[V:2] c4c4 | 
[V:3] z8 | 
[V:4] G4A4 | 
[V:5] C,4C,4 | 
[V:1] G2F2F4- | 
[V:2] d4A4 | 
[V:3] z8 | 
[V:4] B4F4 | 
[V:5] B,,4D,4 | 
[V:1] F2EDE4 | 
[V:2] c8 | 
[V:3] z8 | 
[V:4] G8 | 
[V:5] C,8 | 
[V:1] F8 | 
[V:2] c8 | 
[V:3] z8 | 
[V:4] F8 | 
[V:5] F,,8 | 
[V:1] [M:3/3](3:2:2G8F4 | 
[V:2] [M:3/3]z8 | 
[V:3] [M:3/3]z8 | 
[V:4] [M:3/3]z8 | 
[V:5] [M:3/3]z8 | 
[V:1] (3G4E4F4 | 
[V:2] (3:2:2c8B4 | 
[V:3] z8 | 
[V:4] z8 | 
[V:5] z8 | 
[V:1] (3E4F4D4 | 
[V:2] (3c4A4B4 | 
[V:3] z8 | 
[V:4] z8 | 
[V:5] z8 | 
[V:1] (3z4D4E4 | 
[V:2] (3A4B4G4 | 
[V:3] z8 | 
[V:4] z8 | 
[V:5] z8 | 
[V:1] (3F4G4C4 | 
[V:2] (3z4G4A4 | 
[V:3] z8 | 
[V:4] z8 | 
[V:5] z8 | 
[V:1] (3D4E4F4 | 
[V:2] (3B4c4F4 | 
[V:3] z8 | 
[V:4] z8 | 
[V:5] z8 | 
[V:1] (3z4c4B4 | 
[V:2] (3G4A4B4 | 
[V:3] z8 | 
[V:4] z8 | 
[V:5] z8 | 
[V:1] (3:2:4G4A4B2B2 | 
[V:2] (3z4f4d4 | 
[V:3] z8 | 
[V:4] z8 | 
[V:5] z8 | 
[V:1] (3c4F4z4 | 
[V:2] (3:2:4c4d4e2e2 | 
[V:3] z8 | 
[V:4] z8 | 
[V:5] z8 | 
[V:1] (3:2:2A8A4 | 
[V:2] f4(3:2:2e2d4 | 
[V:3] z8 | 
[V:4] z8 | 
[V:5] z8 | 
[V:1] (3:2:2A8A4 | 
[V:2] (3c4c4c4 | 
[V:3] z8 | 
[V:4] z8 | 
[V:5] z8 | 
[V:1] B4(3A2G2F2 | 
[V:2] (3:2:2d8B4 | 
[V:3] z8 | 
[V:4] z8 | 
[V:5] z8 | 
[V:1] (3:2:2F8E4 | 
[V:2] (3:2:2A4G8 | 
[V:3] z8 | 
[V:4] z8 | 
[V:5] z8 | 
[V:1] [M:2/1]F8 | 
[V:2] [M:2/1]F8 | 
[V:3] [M:2/1]z8 | 
[V:4] [M:2/1]z8 | 
[V:5] [M:2/1]z8 | 
[V:1] F8 | 
[V:2] A8 | 
[V:3] c8 | 
[V:4] F8 | 
[V:5] F,,8 | 
[V:1] F8 | 
[V:2] d8 | 
[V:3] B8 | 
[V:4] D8 | 
[V:5] B,,8 | 
[V:1] A8 | 
[V:2] e8 | 
[V:3] c8 | 
[V:4] C8 | 
[V:5] A,,8 | 
[V:1] A8 | 
[V:2] d8 | 
[V:3] A8 | 
[V:4] F8 | 
[V:5] D,8 | 
[V:1] G8 | 
[V:2] d8 | 
[V:3] B8 | 
[V:4] G8 | 
[V:5] G,,8 | 
[V:1] F8 | 
[V:2] c8 | 
[V:3] A8 | 
[V:4] C8 | 
[V:5] A,,4F,,4 | 
[V:1] E8 | 
[V:2] c8 | 
[V:3] G8 | 
[V:4] E8 | 
[V:5] C,8 | 
[V:1] F8 ||  
[V:2] A8 ||  
[V:3] F8 ||  
[V:4] C8 ||  
[V:5] F,,8 ||  
[V:1]  [K:F] [K:clef=treble][M:3/1]z12 | 
[V:2]  [K:F] [K:clef=treble-8][M:3/1]A6B2c4 | 
[V:3]  [K:F] [K:clef=treble-8][M:3/1]F12- | 
[V:4]  [K:F] [K:clef=treble-8][M:3/1]C8C4 | 
[V:5]  [K:F] [K:clef=bass][M:3/1]F,,6G,,2A,,4 | 
[V:1] z12 | 
[V:2] B4d4c4 | 
[V:3] F8A4- | 
[V:4] D6E2F4 | 
[V:5] B,,6A,,2F,,4 | 
[V:1] z12 | 
[V:2] d4f4e4 | 
[V:3] A4c4c4 | 
[V:4] D4z4E4 | 
[V:5] F,6E,2C,4 | 
[V:1] z12 | 
[V:2] d6c2B2A2 | 
[V:3] B4d6c2 | 
[V:4] G8F4 | 
[V:5] G,,6A,,2B,,4 | 
[V:1] G6A2B4 | 
[V:2] G4z4G4 | 
[V:3] c8B4 | 
[V:4] E4D8 | 
[V:5] C,4G,,8 | 
[V:1] A8G4 | 
[V:2] E2A3GF4E2 | 
[V:3] c12 | 
[V:4] C8z4 | 
[V:5] A,,6B,,2C,4 | 
[V:1] A4c6C2 | 
[V:2] F8c4 | 
[V:3] z12 | 
[V:4] c8A4 | 
[V:5] F,,4F,6E,2 | 
[V:1] F8E4 | 
[V:2] B4c4G4 | 
[V:3] z12 | 
[V:4] F4G6FE | 
[V:5] D,4C,8 | 
[V:1] F8G4 | 
[V:2] A2F2A4G4 | 
[V:3] d8e4 | 
[V:4] D4F4E4 | 
[V:5] z12 | 
[V:1] A8G4 | 
[V:2] c12- | 
[V:3] f8e4 | 
[V:4] C8E4- | 
[V:5] F,,8C,4- | 
[V:1] A4B6A2 | 
[V:2] c4F4f4 | 
[V:3] c4d6c2 | 
[V:4] E4D8 | 
[V:5] C,4B,,8 | 
[V:1] G4d6c2 | 
[V:2] e4d4e4- | 
[V:3] c4B4c4 | 
[V:4] G12- | 
[V:5] C,4G,,4C,4- | 
[V:1] c8=B4 | 
[V:2] e2f2g2d2g4 | 
[V:3] e4d8 | 
[V:4] G8G4 | 
[V:5] C,4G,,8 | 
[V:1] c6BAG4 | 
[V:2] f2e4d2c4 | 
[V:3] c8z4 | 
[V:4] C6D2E4 | 
[V:5] A,,6B,,2C,4 | 
[V:1] A6B2c4 | 
[V:2] c2A4G4F2 | 
[V:3] c8A4 | 
[V:4] F6EDC4 | 
[V:5] F,,6G,,2A,,4 | 
[V:1] B4z4B4 | 
[V:2] G2A2B2c2d2e2 | 
[V:3] B6A2G4 | 
[V:4] D12 | 
[V:5] G,,6A,,2B,,2C,2 | 
[V:1] A6G2A2F2- | 
[V:2] f4z4c4 | 
[V:3] F4E4F4 | 
[V:4] z12 | 
[V:5] D,4C,4A,,4 | 
[V:1] FCF4EFE4 | 
[V:2] c6BAG4 | 
[V:3] A4G8 | 
[V:4] C6D2E4 | 
[V:5] F,,4C,8 | 
[V:1] F8z4 | 
[V:2] A8A4 | 
[V:3] F12- | 
[V:4] D4C4F4- | 
[V:5] F,,12- | 
[V:1] C4F6G2 | 
[V:2] F4C4F4- | 
[V:3] F12 | 
[V:4] F2G2A2B2A4 | 
[V:5] F,,12- | 
[V:1] A2B2A4F4 | 
[V:2] F2G2A2B2A4 | 
[V:3] C4F6G2 | 
[V:4] F4c6B2 | 
[V:5] F,,12- | 
[V:1] c6B2A4 | 
[V:2] F4c4d4 | 
[V:3] A2B2A4F4 | 
[V:4] A4F4z4 | 
[V:5] F,,12 | 
[V:1] G4A2G4F2 | 
[V:2] _e8d4 | 
[V:3] c6B2A4 | 
[V:4] C8D4 | 
[V:5] z12 | 
[V:1] G4z4A4 | 
[V:2] c4A2B2c4 | 
[V:3] G4A2G4F2 | 
[V:4] E6D2C4 | 
[V:5] C,6B,,2A,,4 | 
[V:1] B6AGF4 | 
[V:2] B6c2d4 | 
[V:3] G4z4A4 | 
[V:4] D6E2F4 | 
[V:5] G,,8D,4 | 
[V:1] G4B4A4 | 
[V:2] d6e2f4 | 
[V:3] B6AGF4 | 
[V:4] D8D4 | 
[V:5] G,,8z4 | 
[V:1] G4z4c4- | 
[V:2] d6B2c3d | 
[V:3] G4B4A4 | 
[V:4] D4G4F2E2 | 
[V:5] G,,8A,,4 | 
[V:1] c2B2A4G4 | 
[V:2] e4c4z4 | 
[V:3] G4z4c4- | 
[V:4] E4F4E4 | 
[V:5] C,4F,,4C,4 | 
[V:1] A4c4B4 | 
[V:2] c4f4d4 | 
[V:3] c2B2A4G4 | 
[V:4] z4F4G4 | 
[V:5] A,,4F,,4z4 | 
[V:1] c6BAG4 | 
[V:2] c4A4z4 | 
[V:3] A4c4B4 | 
[V:4] C8D4 | 
[V:5] F,,8B,,4 | 
[V:1] A6GFE3D | 
[V:2] z12 | 
[V:3] c6BAG3F | 
[V:4] C4F4G4 | 
[V:5] A,,4F,,4C,4 | 
[V:1] A4G6F2 | 
[V:2] c6BAG4 | 
[V:3] c8B4 | 
[V:4] C2D2E2F2G4 | 
[V:5] A,,2B,,2C,2D,2_E,4 | 
[V:1] F8E4 | 
[V:2] c6BAG4 | 
[V:3] A4G8 | 
[V:4] A4c6C2 | 
[V:5] F,4C,6B,,2 | 
[V:1] F12- | 
[V:2] c4B8 | 
[V:3] F12- | 
[V:4] C4D8 | 
[V:5] A,,4B,,8 | 
[V:1] F12 |]  
[V:2] c12 |]  
[V:3] F12 |]  
[V:4] C12 |]  
[V:5] F,,12 |]  
